packages/sources/assets/src/assets/flag-il.svg

<svg width="28" height="20" viewBox="0 0 28 20" fill="none" xmlns="http://www.w3.org/2000/svg">
<rect x="0.25" y="0.25" width="27.5" height="19.5" rx="1.75" fill="white" stroke="#F5F5F5" stroke-width="0.5"/>
<mask id="mask0_503_4051" style="mask-type:alpha" maskUnits="userSpaceOnUse" x="0" y="0" width="28" height="20">
<rect x="0.25" y="0.25" width="27.5" height="19.5" rx="1.75" fill="white" stroke="white" stroke-width="0.5"/>
</mask>
<g mask="url(#mask0_503_4051)">
<path fill-rule="evenodd" clip-rule="evenodd" d="M0 4H28V0H0V4Z" fill="#0E46D4"/>
<path fill-rule="evenodd" clip-rule="evenodd" d="M0 20H28V16H0V20Z" fill="#0E46D4"/>
<path d="M10.3753 11.8381L10.1002 12.3333L10.6667 12.3333L17.3333 12.3333L17.8998 12.3333L17.6247 11.8381L14.2914 5.83813L14 5.31364L13.7086 5.83813L10.3753 11.8381Z" stroke="#093EC5" stroke-width="0.666667"/>
<path d="M10.3753 8.16187L10.1002 7.66665L10.6667 7.66665L17.3333 7.66665L17.8998 7.66665L17.6247 8.16187L14.2914 14.1619L14 14.6864L13.7086 14.1619L10.3753 8.16187Z" stroke="#093EC5" stroke-width="0.666667"/>
</g>
</svg>

<svg width="28" height="20" fill="none" xmlns="http://www.w3.org/2000/svg"><rect x=".25" y=".25" width="27.5" height="19.5" rx="1.75" fill="#fff" stroke="#F5F5F5" stroke-width=".5"/><mask id="a" style="mask-type:alpha" maskUnits="userSpaceOnUse" x="0" y="0" width="28" height="20"><rect x=".25" y=".25" width="27.5" height="19.5" rx="1.75" fill="#fff" stroke="#fff" stroke-width=".5"/></mask><g mask="url(#a)"><path fill-rule="evenodd" clip-rule="evenodd" d="M0 4h28V0H0v4Zm0 16h28v-4H0v4Z" fill="#0E46D4"/><path d="m10.375 11.838-.275.495h7.8l-.275-.495-3.334-6L14 5.314l-.291.524-3.334 6Z" stroke="#093EC5" stroke-width=".667"/><path d="m10.375 8.162-.275-.495h7.8l-.275.495-3.334 6-.291.524-.291-.524-3.334-6Z" stroke="#093EC5" stroke-width=".667"/></g></svg>
